X: 38126
T: Sporting Boys Of Scotstown, The
R: reel
M: 4/4
K: Amajor
|:cd|eaaa e2cd|eaaa e2cd|eaaa edcA|BAGA B2:|
|:ed|cAAA EAAA|cAAA e2ed|cAAA EAAA|BAGA B2:|

